svg-color/cash-sync-color.svg

<?xml version="1.0" encoding="UTF-8" standalone="no"?>
<svg
   id="mdi-cash-sync"
   viewBox="0 0 24 24"
   version="1.1"
   sodipodi:docname="cash-sync-color.svg"
   inkscape:version="1.4 (e7c3feb1, 2024-10-09)"
   xmlns:inkscape="http://www.inkscape.org/namespaces/inkscape"
   xmlns:sodipodi="http://sodipodi.sourceforge.net/DTD/sodipodi-0.dtd"
   xmlns="http://www.w3.org/2000/svg"
   xmlns:svg="http://www.w3.org/2000/svg">
  <defs
     id="defs1" />
  <sodipodi:namedview
     id="namedview1"
     pagecolor="#ffffff"
     bordercolor="#000000"
     borderopacity="0.25"
     inkscape:showpageshadow="2"
     inkscape:pageopacity="0.0"
     inkscape:pagecheckerboard="0"
     inkscape:deskcolor="#d1d1d1"
     showguides="true"
     inkscape:zoom="42.61"
     inkscape:cx="17.742314"
     inkscape:cy="13.248064"
     inkscape:window-width="1456"
     inkscape:window-height="782"
     inkscape:window-x="19"
     inkscape:window-y="38"
     inkscape:window-maximized="0"
     inkscape:current-layer="mdi-cash-sync" />
  <path
     id="rect1"
     style="fill:#00ff00;stroke-width:1.97023;stroke-linejoin:bevel;stroke-miterlimit:1"
     d="M 3.1445312,6.0527344 V 18.019531 H 13.332031 c -0.216803,-0.626524 -0.329621,-1.284304 -0.333984,-1.947265 4.34e-4,-3.35636 2.721765,-6.02989 6.078125,-6.029246 0.629178,4.68e-4 1.207542,-0.04214 1.80659,0.150236 l 0.04693,-4.1405216 z"
     sodipodi:nodetypes="cccccccc" />
  <path
     d="M 3,6 V 18 H 13.32 C 13.1,17.33 13,16.66 13,16 H 7 C 7,14.9 6.11,14 5,14 V 10 C 6.11,10 7,9.11 7,8 h 10 c 0,1.11 0.876531,2.070406 1.976531,2.070406 L 19,10.06 c 0.67,0 1.34,0.12 2,0.34 V 6 H 3 m 9,3 c -1.7,0.03 -3,1.3 -3,3 0,1.7 1.3,2.94 3,3 0.38,0 0.77,-0.08 1.14,-0.23 0.27,-1.1 0.72,-2.14 1.83,-3.16 C 14.85,10.28 13.59,8.97 12,9 m 7,2 2.25,2.25 L 19,15.5 V 14 c -1.85,0 -3.06,1.96 -2.24,3.62 l -1.09,1.09 C 13.91,16.05 15.81,12.5 19,12.5 V 11 M 19,22 16.75,19.75 19,17.5 V 19 c 1.85,0 3.06,-1.96 2.24,-3.62 l 1.09,-1.09 C 24.09,16.95 22.19,20.5 19,20.5 V 22"
     id="path1"
     style="display:inline"
     sodipodi:nodetypes="cccccccccccccccscccccccccccccccccccc" />
</svg>

<?xml version="1.0" encoding="UTF-8" standalone="no"?>
<svg
   id="mdi-cash-sync"
   viewBox="0 0 24 24"
   version="1.1"
   sodipodi:docname="cash-sync-color.svg"
   inkscape:version="1.4 (e7c3feb1, 2024-10-09)"
   xmlns:inkscape="http://www.inkscape.org/namespaces/inkscape"
   xmlns:sodipodi="http://sodipodi.sourceforge.net/DTD/sodipodi-0.dtd"
   xmlns="http://www.w3.org/2000/svg"
   xmlns:svg="http://www.w3.org/2000/svg">
  <defs
     id="defs1" />
  <sodipodi:namedview
     id="namedview1"
     pagecolor="#ffffff"
     bordercolor="#000000"
     borderopacity="0.25"
     inkscape:showpageshadow="2"
     inkscape:pageopacity="0.0"
     inkscape:pagecheckerboard="0"
     inkscape:deskcolor="#d1d1d1"
     showguides="true"
     inkscape:zoom="21.31"
     inkscape:cx="11.262318"
     inkscape:cy="13.444392"
     inkscape:window-width="1456"
     inkscape:window-height="782"
     inkscape:window-x="19"
     inkscape:window-y="38"
     inkscape:window-maximized="0"
     inkscape:current-layer="mdi-cash-sync" />
  <path
     id="rect1"
     style="fill:#00ff00;stroke-width:1.97023;stroke-linejoin:bevel;stroke-miterlimit:1"
     d="M 3.1445312 6.0527344 L 3.1445312 18.019531 L 13.332031 18.019531 A 6.0769587 6.0769587 0 0 1 12.998047 16.072266 A 6.0769587 6.0769587 0 0 1 19.076172 9.9960938 A 6.0769587 6.0769587 0 0 1 20.929688 10.287109 L 20.929688 6.0527344 L 3.1445312 6.0527344 z " />
  <path
     d="M3 6V18H13.32C13.1 17.33 13 16.66 13 16H7C7 14.9 6.11 14 5 14V10C6.11 10 7 9.11 7 8H17C17 9.11 17.9 10 19 10V10.06C19.67 10.06 20.34 10.18 21 10.4V6H3M12 9C10.3 9.03 9 10.3 9 12S10.3 14.94 12 15C12.38 15 12.77 14.92 13.14 14.77C13.41 13.67 13.86 12.63 14.97 11.61C14.85 10.28 13.59 8.97 12 9M19 11L21.25 13.25L19 15.5V14C17.15 14 15.94 15.96 16.76 17.62L15.67 18.71C13.91 16.05 15.81 12.5 19 12.5V11M19 22L16.75 19.75L19 17.5V19C20.85 19 22.06 17.04 21.24 15.38L22.33 14.29C24.09 16.95 22.19 20.5 19 20.5V22"
     id="path1" />
</svg>
